X: 31
T:Silver Spire, The
M:C|
L:1/8
Q:200
S:THSP
R:reel
N:
D:Sharon Shannon
Z:
K:D
"D"D2FE DFAc|dcde fdAF|"G"G2BG "D"FADF|"G"GFED "A"CEA,C|
"D"D2FE DFAc|dcde fdAF|"G"GABG "D"FADF
|1 "A"EA,CE "D"D3C:|2 "A"EA,CE "D"D2CB,||:
"A"A,B,CD EFGE|"D"FDEF GABc|"G"dBBA Bcde|"D"fdgf "A"e2fe|
"D"defd "A"ceAc|"G"dcdB "D"AFDF|"G"GABG "D"FADF
|1 "A"EA,CE "D"D2CB,:|2 "A"EA,CE "D"D3C|]
